images/content/ts-security-vaccinated-200x200-opt.svg

<svg xmlns="http://www.w3.org/2000/svg" xmlns:xlink="http://www.w3.org/1999/xlink" width="640" height="640">
  <defs>
    <path d="M320 0C143.27 0 0 143.27 0 320s143.27 320 320 320 320-143.27 320-320S496.73 0 320 0z" id="a"/>
    <path d="M639.08 295.66c-9.29-9.3-55.78-55.78-139.45-139.45l-355.46 93.01 84.05 82.84-13.42.08-80.47-80.47v10.75l12.75 70.14L250.11 435.5l-8.07 4.77-107.71-107.71v11.35l25.54 144.89-39.73-3.69c85.31 89.82 132.71 139.72 142.19 149.7 18.71 3.4 37.98 5.19 57.67 5.19 176.73 0 320-143.27 320-320 0-8.19-.31-16.31-.92-24.34z" id="b"/>
    <path d="M319.7 113.33h-.12c-102.35.07-185.25 25.77-185.25 57.45v59.93c0 31.73 83.13 57.46 185.67 57.46 102.54 0 185.67-25.73 185.67-57.46v-59.93c0-31.73-83.13-57.45-185.67-57.45h-.3z" id="c"/>
    <path d="M505.66 170.79c0 31.73-83.12 57.45-185.66 57.45-102.54 0-185.66-25.72-185.66-57.45 0-31.73 83.12-57.45 185.66-57.45 102.54 0 185.66 25.72 185.66 57.45z" id="d"/>
    <path d="M319.58 113.33v114.9h.42c102.54 0 185.67-25.72 185.67-57.45 0-31.73-83.13-57.45-185.67-57.45h-.42z" id="e"/>
    <path d="M319.58 228.23v59.93c.14 0 .28.01.42.01 102.54 0 185.67-25.73 185.67-57.46v-59.93c0 31.73-83.13 57.46-185.67 57.46-.14 0-.28-.01-.42-.01z" id="f"/>
    <path d="M320 369.06c102.54 0 185.67-25.73 185.67-57.46v-59.93c0 31.73-83.13 57.46-185.67 57.46-102.54 0-185.67-25.73-185.67-57.46v59.93c55.42 38.31 117.31 57.46 185.67 57.46z" id="g"/>
    <path d="M319.58 309.12v59.94h.42c102.54 0 185.67-25.73 185.67-57.46v-59.93c0 31.73-83.13 57.46-185.67 57.46-.14 0-.28-.01-.42-.01z" id="h"/>
    <path d="M320 449.95c102.54 0 185.67-25.73 185.67-57.46v-59.93c0 31.73-83.13 57.46-185.67 57.46-102.54 0-185.67-25.73-185.67-57.46v59.93c55.42 38.31 117.31 57.46 185.67 57.46z" id="i"/>
    <path d="M319.58 390.01v59.94h.42c102.54 0 185.67-25.73 185.67-57.46v-59.93c0 31.73-83.13 57.46-185.67 57.46-.14 0-.28-.01-.42-.01z" id="j"/>
    <path d="M320 530.84c102.54 0 185.67-25.72 185.67-57.45v-59.94c0 31.73-83.13 57.46-185.67 57.46-102.54 0-185.67-25.73-185.67-57.46v59.94c55.42 38.3 117.31 57.45 185.67 57.45z" id="k"/>
    <path d="M319.58 470.91v59.93h.42c102.54 0 185.67-25.72 185.67-57.45v-59.94c0 31.73-83.13 57.46-185.67 57.46h-.42z" id="l"/>
    <path d="M169.08 185.04l3.39.35 3.35.48 3.31.6 3.26.74 3.21.86 3.16.98 3.1 1.11 3.05 1.21 2.99 1.34 2.92 1.44 2.86 1.56 2.79 1.65 2.72 1.77 2.65 1.86 2.57 1.96 2.49 2.06 2.41 2.15 2.33 2.24 2.24 2.32 2.15 2.41 2.05 2.49 1.96 2.57 1.87 2.65 1.76 2.72 1.66 2.79 1.55 2.86 1.45 2.93 1.33 2.98 1.22 3.05 1.1 3.11.98 3.16.86 3.21.74 3.26.61 3.31.47 3.35.35 3.39.21 3.43.07 3.47-.03 2.32-.1 2.31-.15 2.3-.22 2.27-.28 2.26-.34 2.24-.39 2.22-.45 2.2-.51 2.18-.57 2.15-.62 2.14-.68 2.11-.72 2.08-.79 2.06-.83 2.03-.89 2.01-.93 1.98-.99 1.95-1.03 1.92-1.08 1.89-1.13 1.86-1.18 1.82-1.22 1.8-1.26 1.76-1.31 1.72-1.35 1.69-1.4 1.66-1.43 1.62-1.48 1.58-1.52 1.54-1.55 1.5-1.6 1.47-1.63 1.42-1.66 1.38-1.71 1.34-1.73 1.29-1.78 1.25-1.8 1.21-1.84 1.16-1.87 1.12v143.45l-43.2 30.14-40.88-30.14v-19.2l23.95-23.95-23.95-16.58v-25.34l23.95-17.04-23.95-16.58v-24.77l-1.87-1.11-1.84-1.16-1.8-1.21-1.78-1.25-1.73-1.29-1.71-1.34-1.66-1.38-1.63-1.42-1.6-1.47-1.55-1.5-1.52-1.54-1.48-1.58-1.43-1.62-1.4-1.66-1.35-1.69-1.31-1.72-1.26-1.76-1.22-1.8-1.18-1.83-1.13-1.85-1.08-1.89-1.03-1.92-.99-1.95-.93-1.98-.89-2.01-.83-2.03-.79-2.06-.72-2.08-.68-2.11-.62-2.14-.57-2.15-.51-2.18-.45-2.2-.39-2.22-.34-2.24-.28-2.26-.22-2.28-.15-2.29-.1-2.31-.03-2.33.07-3.46.21-3.43.35-3.39.47-3.36.61-3.3.74-3.26.86-3.21.98-3.16 1.1-3.11 1.22-3.05 1.33-2.98 1.45-2.93 1.55-2.86 1.66-2.79 1.76-2.72 1.87-2.65 1.96-2.57 2.05-2.49 2.15-2.41 2.24-2.32 2.33-2.24 2.41-2.15 2.49-2.06 2.57-1.96 2.65-1.86 2.72-1.77 2.79-1.65 2.86-1.56 2.92-1.44 2.99-1.34 3.05-1.21 3.1-1.11 3.16-.98 3.21-.86 3.26-.74 3.31-.6 3.35-.48 3.39-.35 3.43-.2 3.47-.07 3.47.07 3.43.2zm-9.59 19.68l-1.31.18-1.29.25-1.26.31-1.24.38-1.21.43-1.18.5-1.15.56-1.11.62-1.08.66-1.04.73-1 .77-.95.82-.92.87-.87.91-.82.96-.77 1-.72 1.04-.67 1.08-.62 1.11-.55 1.15-.5 1.18-.44 1.21-.38 1.23-.31 1.27-.24 1.29-.18 1.31-.11 1.33-.04 1.36.04 1.35.11 1.33.18 1.31.24 1.29.31 1.27.38 1.24.44 1.21.5 1.18.55 1.14.62 1.12.67 1.07.72 1.04.77 1 .82.96.87.91.92.87.95.82 1 .78 1.04.72 1.08.67 1.11.61 1.15.56 1.18.5 1.21.44 1.24.37 1.26.31 1.29.25 1.31.18 1.34.11 1.35.03 1.35-.03 1.34-.11 1.31-.18 1.29-.25 1.26-.31 1.24-.37 1.21-.44 1.18-.5 1.15-.56 1.11-.61 1.08-.67 1.04-.72 1-.78.95-.82.92-.87.87-.91.82-.96.77-1 .72-1.04.67-1.07.62-1.12.55-1.14.5-1.18.44-1.21.38-1.24.31-1.27.24-1.29.18-1.31.11-1.33.04-1.35-.04-1.36-.11-1.33-.18-1.31-.24-1.29-.31-1.27-.38-1.23-.44-1.21-.5-1.18-.55-1.15-.62-1.11-.67-1.08-.72-1.04-.77-1-.82-.96-.87-.91-.92-.87-.95-.82-1-.77-1.04-.73-1.08-.66-1.11-.62-1.15-.56-1.18-.5-1.21-.43-1.24-.38-1.26-.31-1.29-.25-1.31-.18-1.34-.1-1.35-.04-1.35.04-1.34.1z" id="m"/>
    <path d="M161.02 184.8v19.84c.38-.02.77-.06 1.16-.06 13.61 0 24.65 11.04 24.65 24.65s-11.04 24.64-24.65 24.64c-.39 0-.78-.04-1.16-.05v261.44l43.2-30.14V341.67c25.13-14.55 42.05-41.7 42.05-72.81 0-46.45-37.65-84.09-84.09-84.09-.39 0-.78.02-1.16.03z" id="n"/>
  </defs>
  <use xlink:href="#a" fill="#dbdadb"/>
  <use xlink:href="#a" fill-opacity="0" stroke="#000" stroke-opacity="0"/>
  <use xlink:href="#b" fill="#600060"/>
  <use xlink:href="#b" fill-opacity="0" stroke="#000" stroke-opacity="0"/>
  <use xlink:href="#c" fill="#e0e0e0"/>
  <use xlink:href="#c" fill-opacity="0" stroke="#000" stroke-opacity="0"/>
  <use xlink:href="#d" fill="#fff"/>
  <use xlink:href="#d" fill-opacity="0" stroke="#000" stroke-opacity="0"/>
  <use xlink:href="#e" fill="#e0e0e0"/>
  <use xlink:href="#e" fill-opacity="0" stroke="#000" stroke-opacity="0"/>
  <use xlink:href="#f" fill="silver"/>
  <use xlink:href="#f" fill-opacity="0" stroke="#000" stroke-opacity="0"/>
  <use xlink:href="#g" fill="#e0e0e0"/>
  <use xlink:href="#g" fill-opacity="0" stroke="#000" stroke-opacity="0"/>
  <g>
    <use xlink:href="#h" fill="silver"/>
    <use xlink:href="#h" fill-opacity="0" stroke="#000" stroke-opacity="0"/>
  </g>
  <g>
    <use xlink:href="#i" fill="#e0e0e0"/>
    <use xlink:href="#i" fill-opacity="0" stroke="#000" stroke-opacity="0"/>
  </g>
  <g>
    <use xlink:href="#j" fill="silver"/>
    <use xlink:href="#j" fill-opacity="0" stroke="#000" stroke-opacity="0"/>
  </g>
  <g>
    <use xlink:href="#k" fill="#e0e0e0"/>
    <use xlink:href="#k" fill-opacity="0" stroke="#000" stroke-opacity="0"/>
  </g>
  <g>
    <use xlink:href="#l" fill="silver"/>
    <use xlink:href="#l" fill-opacity="0" stroke="#000" stroke-opacity="0"/>
  </g>
  <g>
    <use xlink:href="#m" fill="#8d008d"/>
    <use xlink:href="#m" fill-opacity="0" stroke="#000" stroke-opacity="0"/>
  </g>
  <g>
    <use xlink:href="#n" fill="#600060"/>
    <use xlink:href="#n" fill-opacity="0" stroke="#000" stroke-opacity="0"/>
  </g>
</svg>

<?xml version="1.0" encoding="UTF-8" standalone="no"?>
<svg
   xmlns:dc="http://purl.org/dc/elements/1.1/"
   xmlns:cc="http://creativecommons.org/ns#"
   xmlns:rdf="http://www.w3.org/1999/02/22-rdf-syntax-ns#"
   xmlns:svg="http://www.w3.org/2000/svg"
   xmlns="http://www.w3.org/2000/svg"
   xmlns:xlink="http://www.w3.org/1999/xlink"
   xmlns:sodipodi="http://sodipodi.sourceforge.net/DTD/sodipodi-0.dtd"
   xmlns:inkscape="http://www.inkscape.org/namespaces/inkscape"
   preserveAspectRatio="xMidYMid meet"
   viewBox="0 0 640 640"
   width="200"
   height="200"
   version="1.1"
   id="svg1574"
   sodipodi:docname="ts-security-vaccinated-200x200-opt.svg"
   inkscape:version="0.92.4 (e05b578, 2019-02-26)">
  <metadata
     id="metadata1578">
    <rdf:RDF>
      <cc:Work
         rdf:about="">
        <dc:format>image/svg+xml</dc:format>
        <dc:type
           rdf:resource="http://purl.org/dc/dcmitype/StillImage" />
        <dc:title></dc:title>
      </cc:Work>
    </rdf:RDF>
  </metadata>
  <sodipodi:namedview
     pagecolor="#ffffff"
     bordercolor="#666666"
     borderopacity="1"
     objecttolerance="10"
     gridtolerance="10"
     guidetolerance="10"
     inkscape:pageopacity="0"
     inkscape:pageshadow="2"
     inkscape:window-width="640"
     inkscape:window-height="480"
     id="namedview1576"
     showgrid="false"
     inkscape:zoom="1.18"
     inkscape:cx="100"
     inkscape:cy="100"
     inkscape:window-x="1009"
     inkscape:window-y="382"
     inkscape:window-maximized="0"
     inkscape:current-layer="svg1574" />
  <defs
     id="defs1456">
    <path
       d="M320 0C143.27 0 0 143.27 0 320C0 496.73 143.27 640 320 640C496.73 640 640 496.73 640 320C640 143.27 496.73 0 320 0Z"
       id="agDmbu8v2" />
    <path
       d="M639.08 295.66C629.79 286.36 583.3 239.88 499.63 156.21L144.17 249.22L228.22 332.06L214.8 332.14L134.33 251.67L134.33 262.42L147.08 332.56L250.11 435.5L242.04 440.27L134.33 332.56L134.33 343.91L159.87 488.8L120.14 485.11C205.45 574.93 252.85 624.83 262.33 634.81C281.04 638.21 300.31 640 320 640C496.73 640 640 496.73 640 320C640 311.81 639.69 303.69 639.08 295.66Z"
       id="c1jlho6fH" />
    <path
       d="M319.7 113.33C319.66 113.33 319.62 113.33 319.58 113.33C319.58 113.33 319.58 113.33 319.58 113.33C217.23 113.4 134.33 139.1 134.33 170.78C134.33 176.78 134.33 224.72 134.33 230.71C134.33 262.44 217.46 288.17 320 288.17C422.54 288.17 505.67 262.44 505.67 230.71C505.67 224.72 505.67 176.78 505.67 170.78C505.67 139.05 422.54 113.33 320 113.33C319.9 113.33 319.8 113.33 319.7 113.33Z"
       id="aDyPUkcQU" />
    <path
       d="M505.66 170.79C505.66 202.52 422.54 228.24 320 228.24C217.46 228.24 134.34 202.52 134.34 170.79C134.34 139.06 217.46 113.34 320 113.34C422.54 113.34 505.66 139.06 505.66 170.79Z"
       id="b1Ovi2fxrR" />
    <path
       d="M319.58 113.33C319.58 124.82 319.58 216.74 319.58 228.23C319.72 228.23 319.86 228.23 320 228.23C422.54 228.23 505.67 202.51 505.67 170.78C505.67 139.05 422.54 113.33 320 113.33C319.86 113.33 319.72 113.33 319.58 113.33Z"
       id="a2kpC9lWco" />
    <path
       d="M319.58 228.23C319.58 234.23 319.58 282.17 319.58 288.16C319.72 288.16 319.86 288.17 320 288.17C422.54 288.17 505.67 262.44 505.67 230.71C505.67 224.72 505.67 176.78 505.67 170.78C505.67 202.51 422.54 228.24 320 228.24C319.86 228.24 319.72 228.23 319.58 228.23Z"
       id="gxJdlOHAS" />
    <path
       d="M320 369.06C422.54 369.06 505.67 343.33 505.67 311.6C505.67 305.61 505.67 257.67 505.67 251.67C505.67 283.4 422.54 309.13 320 309.13C217.46 309.13 134.33 283.4 134.33 251.67C134.33 255.67 134.33 275.65 134.33 311.6C189.75 349.91 251.64 369.06 320 369.06Z"
       id="b4vlR2PoB2" />
    <path
       d="M319.58 309.12C319.58 315.12 319.58 363.06 319.58 369.06C319.72 369.06 319.86 369.06 320 369.06C422.54 369.06 505.67 343.33 505.67 311.6C505.67 305.61 505.67 257.67 505.67 251.67C505.67 283.4 422.54 309.13 320 309.13C319.86 309.13 319.72 309.12 319.58 309.12Z"
       id="f89kSF8j0" />
    <path
       d="M320 449.95C422.54 449.95 505.67 424.22 505.67 392.49C505.67 386.5 505.67 338.56 505.67 332.56C505.67 364.29 422.54 390.02 320 390.02C217.46 390.02 134.33 364.29 134.33 332.56C134.33 336.56 134.33 356.54 134.33 392.49C189.75 430.8 251.64 449.95 320 449.95Z"
       id="aiP78q9Xe" />
    <path
       d="M319.58 390.01C319.58 396.01 319.58 443.95 319.58 449.95C319.72 449.95 319.86 449.95 320 449.95C422.54 449.95 505.67 424.22 505.67 392.49C505.67 386.5 505.67 338.56 505.67 332.56C505.67 364.29 422.54 390.02 320 390.02C319.86 390.02 319.72 390.01 319.58 390.01Z"
       id="e1yATjfmLa" />
    <path
       d="M320 530.84C422.54 530.84 505.67 505.12 505.67 473.39C505.67 467.39 505.67 419.45 505.67 413.45C505.67 445.18 422.54 470.91 320 470.91C217.46 470.91 134.33 445.18 134.33 413.45C134.33 417.45 134.33 437.43 134.33 473.39C189.75 511.69 251.64 530.84 320 530.84Z"
       id="hbrS8qCtZn" />
    <path
       d="M319.58 470.91C319.58 476.9 319.58 524.84 319.58 530.84C319.72 530.84 319.86 530.84 320 530.84C422.54 530.84 505.67 505.12 505.67 473.39C505.67 467.39 505.67 419.45 505.67 413.45C505.67 445.18 422.54 470.91 320 470.91C319.86 470.91 319.72 470.91 319.58 470.91Z"
       id="hxvsYzvyP" />
    <path
       d="M169.08 185.04L172.47 185.39L175.82 185.87L179.13 186.47L182.39 187.21L185.6 188.07L188.76 189.05L191.86 190.16L194.91 191.37L197.9 192.71L200.82 194.15L203.68 195.71L206.47 197.36L209.19 199.13L211.84 200.99L214.41 202.95L216.9 205.01L219.31 207.16L221.64 209.4L223.88 211.72L226.03 214.13L228.08 216.62L230.04 219.19L231.91 221.84L233.67 224.56L235.33 227.35L236.88 230.21L238.33 233.14L239.66 236.12L240.88 239.17L241.98 242.28L242.96 245.44L243.82 248.65L244.56 251.91L245.17 255.22L245.64 258.57L245.99 261.96L246.2 265.39L246.27 268.86L246.24 271.18L246.14 273.49L245.99 275.79L245.77 278.06L245.49 280.32L245.15 282.56L244.76 284.78L244.31 286.98L243.8 289.16L243.23 291.31L242.61 293.45L241.93 295.56L241.21 297.64L240.42 299.7L239.59 301.73L238.7 303.74L237.77 305.72L236.78 307.67L235.75 309.59L234.67 311.48L233.54 313.34L232.36 315.16L231.14 316.96L229.88 318.72L228.57 320.44L227.22 322.13L225.82 323.79L224.39 325.41L222.91 326.99L221.39 328.53L219.84 330.03L218.24 331.5L216.61 332.92L214.95 334.3L213.24 335.64L211.51 336.93L209.73 338.18L207.93 339.39L206.09 340.55L204.22 341.67L204.22 485.12L161.02 515.26L120.14 485.12L120.14 465.92L144.09 441.97L120.14 425.39L120.14 400.05L144.09 383.01L120.14 366.43L120.14 341.66L118.27 340.55L116.43 339.39L114.63 338.18L112.85 336.93L111.12 335.64L109.41 334.3L107.75 332.92L106.12 331.5L104.52 330.03L102.97 328.53L101.45 326.99L99.97 325.41L98.54 323.79L97.14 322.13L95.79 320.44L94.48 318.72L93.22 316.96L92 315.16L90.82 313.33L89.69 311.48L88.61 309.59L87.58 307.67L86.59 305.72L85.66 303.74L84.77 301.73L83.94 299.7L83.15 297.64L82.43 295.56L81.75 293.45L81.13 291.31L80.56 289.16L80.05 286.98L79.6 284.78L79.21 282.56L78.87 280.32L78.59 278.06L78.37 275.78L78.22 273.49L78.12 271.18L78.09 268.85L78.16 265.39L78.37 261.96L78.72 258.57L79.19 255.21L79.8 251.91L80.54 248.65L81.4 245.44L82.38 242.28L83.48 239.17L84.7 236.12L86.03 233.14L87.48 230.21L89.03 227.35L90.69 224.56L92.45 221.84L94.32 219.19L96.28 216.62L98.33 214.13L100.48 211.72L102.72 209.4L105.05 207.16L107.46 205.01L109.95 202.95L112.52 200.99L115.17 199.13L117.89 197.36L120.68 195.71L123.54 194.15L126.46 192.71L129.45 191.37L132.5 190.16L135.6 189.05L138.76 188.07L141.97 187.21L145.23 186.47L148.54 185.87L151.89 185.39L155.28 185.04L158.71 184.84L162.18 184.77L165.65 184.84L169.08 185.04ZM159.49 204.72L158.18 204.9L156.89 205.15L155.63 205.46L154.39 205.84L153.18 206.27L152 206.77L150.85 207.33L149.74 207.95L148.66 208.61L147.62 209.34L146.62 210.11L145.67 210.93L144.75 211.8L143.88 212.71L143.06 213.67L142.29 214.67L141.57 215.71L140.9 216.79L140.28 217.9L139.73 219.05L139.23 220.23L138.79 221.44L138.41 222.67L138.1 223.94L137.86 225.23L137.68 226.54L137.57 227.87L137.53 229.23L137.57 230.58L137.68 231.91L137.86 233.22L138.1 234.51L138.41 235.78L138.79 237.02L139.23 238.23L139.73 239.41L140.28 240.55L140.9 241.67L141.57 242.74L142.29 243.78L143.06 244.78L143.88 245.74L144.75 246.65L145.67 247.52L146.62 248.34L147.62 249.12L148.66 249.84L149.74 250.51L150.85 251.12L152 251.68L153.18 252.18L154.39 252.62L155.63 252.99L156.89 253.3L158.18 253.55L159.49 253.73L160.83 253.84L162.18 253.87L163.53 253.84L164.87 253.73L166.18 253.55L167.47 253.3L168.73 252.99L169.97 252.62L171.18 252.18L172.36 251.68L173.51 251.12L174.62 250.51L175.7 249.84L176.74 249.12L177.74 248.34L178.69 247.52L179.61 246.65L180.48 245.74L181.3 244.78L182.07 243.78L182.79 242.74L183.46 241.67L184.08 240.55L184.63 239.41L185.13 238.23L185.57 237.02L185.95 235.78L186.26 234.51L186.5 233.22L186.68 231.91L186.79 230.58L186.83 229.23L186.79 227.87L186.68 226.54L186.5 225.23L186.26 223.94L185.95 222.67L185.57 221.44L185.13 220.23L184.63 219.05L184.08 217.9L183.46 216.79L182.79 215.71L182.07 214.67L181.3 213.67L180.48 212.71L179.61 211.8L178.69 210.93L177.74 210.11L176.74 209.34L175.7 208.61L174.62 207.95L173.51 207.33L172.36 206.77L171.18 206.27L169.97 205.84L168.73 205.46L167.47 205.15L166.18 204.9L164.87 204.72L163.53 204.62L162.18 204.58L160.83 204.62L159.49 204.72Z"
       id="dgAWC7dJD" />
    <path
       d="M161.02 184.8C161.02 186.78 161.02 202.66 161.02 204.64C161.4 204.62 161.79 204.58 162.18 204.58C175.79 204.58 186.83 215.62 186.83 229.23C186.83 242.84 175.79 253.87 162.18 253.87C161.79 253.87 161.4 253.83 161.02 253.82C161.02 271.24 161.02 358.39 161.02 515.26L161.02 515.26L204.22 485.12C204.22 399.05 204.22 351.23 204.22 341.67C229.35 327.12 246.27 299.97 246.27 268.86C246.27 222.41 208.62 184.77 162.18 184.77C161.79 184.77 161.4 184.79 161.02 184.8Z"
       id="o4tNpeowx5" />
  </defs>
  <g
     id="g1572">
    <g
       id="g1570">
      <g
         id="g1464">
        <use
           xlink:href="#agDmbu8v2"
           opacity="1"
           fill="#a434b7"
           fill-opacity="1"
           id="use1458" />
        <g
           id="g1462">
          <use
             xlink:href="#agDmbu8v2"
             opacity="1"
             fill-opacity="0"
             stroke="#000000"
             stroke-width="1"
             stroke-opacity="0"
             id="use1460" />
        </g>
      </g>
      <g
         id="g1472">
        <use
           xlink:href="#c1jlho6fH"
           opacity="1"
           fill="#6e1f7c"
           fill-opacity="1"
           id="use1466" />
        <g
           id="g1470">
          <use
             xlink:href="#c1jlho6fH"
             opacity="1"
             fill-opacity="0"
             stroke="#000000"
             stroke-width="1"
             stroke-opacity="0"
             id="use1468" />
        </g>
      </g>
      <g
         id="g1480">
        <use
           xlink:href="#aDyPUkcQU"
           opacity="1"
           fill="#e0e0e0"
           fill-opacity="1"
           id="use1474" />
        <g
           id="g1478">
          <use
             xlink:href="#aDyPUkcQU"
             opacity="1"
             fill-opacity="0"
             stroke="#000000"
             stroke-width="1"
             stroke-opacity="0"
             id="use1476" />
        </g>
      </g>
      <g
         id="g1488">
        <use
           xlink:href="#b1Ovi2fxrR"
           opacity="1"
           fill="#ffffff"
           fill-opacity="1"
           id="use1482" />
        <g
           id="g1486">
          <use
             xlink:href="#b1Ovi2fxrR"
             opacity="1"
             fill-opacity="0"
             stroke="#000000"
             stroke-width="1"
             stroke-opacity="0"
             id="use1484" />
        </g>
      </g>
      <g
         id="g1496">
        <use
           xlink:href="#a2kpC9lWco"
           opacity="1"
           fill="#e0e0e0"
           fill-opacity="1"
           id="use1490" />
        <g
           id="g1494">
          <use
             xlink:href="#a2kpC9lWco"
             opacity="1"
             fill-opacity="0"
             stroke="#000000"
             stroke-width="1"
             stroke-opacity="0"
             id="use1492" />
        </g>
      </g>
      <g
         id="g1504">
        <use
           xlink:href="#gxJdlOHAS"
           opacity="1"
           fill="#c0c0c0"
           fill-opacity="1"
           id="use1498" />
        <g
           id="g1502">
          <use
             xlink:href="#gxJdlOHAS"
             opacity="1"
             fill-opacity="0"
             stroke="#000000"
             stroke-width="1"
             stroke-opacity="0"
             id="use1500" />
        </g>
      </g>
      <g
         id="g1512">
        <use
           xlink:href="#b4vlR2PoB2"
           opacity="1"
           fill="#e0e0e0"
           fill-opacity="1"
           id="use1506" />
        <g
           id="g1510">
          <use
             xlink:href="#b4vlR2PoB2"
             opacity="1"
             fill-opacity="0"
             stroke="#000000"
             stroke-width="1"
             stroke-opacity="0"
             id="use1508" />
        </g>
      </g>
      <g
         id="g1520">
        <use
           xlink:href="#f89kSF8j0"
           opacity="1"
           fill="#c0c0c0"
           fill-opacity="1"
           id="use1514" />
        <g
           id="g1518">
          <use
             xlink:href="#f89kSF8j0"
             opacity="1"
             fill-opacity="0"
             stroke="#000000"
             stroke-width="1"
             stroke-opacity="0"
             id="use1516" />
        </g>
      </g>
      <g
         id="g1528">
        <use
           xlink:href="#aiP78q9Xe"
           opacity="1"
           fill="#e0e0e0"
           fill-opacity="1"
           id="use1522" />
        <g
           id="g1526">
          <use
             xlink:href="#aiP78q9Xe"
             opacity="1"
             fill-opacity="0"
             stroke="#000000"
             stroke-width="1"
             stroke-opacity="0"
             id="use1524" />
        </g>
      </g>
      <g
         id="g1536">
        <use
           xlink:href="#e1yATjfmLa"
           opacity="1"
           fill="#c0c0c0"
           fill-opacity="1"
           id="use1530" />
        <g
           id="g1534">
          <use
             xlink:href="#e1yATjfmLa"
             opacity="1"
             fill-opacity="0"
             stroke="#000000"
             stroke-width="1"
             stroke-opacity="0"
             id="use1532" />
        </g>
      </g>
      <g
         id="g1544">
        <use
           xlink:href="#hbrS8qCtZn"
           opacity="1"
           fill="#e0e0e0"
           fill-opacity="1"
           id="use1538" />
        <g
           id="g1542">
          <use
             xlink:href="#hbrS8qCtZn"
             opacity="1"
             fill-opacity="0"
             stroke="#000000"
             stroke-width="1"
             stroke-opacity="0"
             id="use1540" />
        </g>
      </g>
      <g
         id="g1552">
        <use
           xlink:href="#hxvsYzvyP"
           opacity="1"
           fill="#c0c0c0"
           fill-opacity="1"
           id="use1546" />
        <g
           id="g1550">
          <use
             xlink:href="#hxvsYzvyP"
             opacity="1"
             fill-opacity="0"
             stroke="#000000"
             stroke-width="1"
             stroke-opacity="0"
             id="use1548" />
        </g>
      </g>
      <g
         id="g1560">
        <use
           xlink:href="#dgAWC7dJD"
           opacity="1"
           fill="#ffca28"
           fill-opacity="1"
           id="use1554" />
        <g
           id="g1558">
          <use
             xlink:href="#dgAWC7dJD"
             opacity="1"
             fill-opacity="0"
             stroke="#000000"
             stroke-width="1"
             stroke-opacity="0"
             id="use1556" />
        </g>
      </g>
      <g
         id="g1568">
        <use
           xlink:href="#o4tNpeowx5"
           opacity="1"
           fill="#b99831"
           fill-opacity="1"
           id="use1562" />
        <g
           id="g1566">
          <use
             xlink:href="#o4tNpeowx5"
             opacity="1"
             fill-opacity="0"
             stroke="#000000"
             stroke-width="1"
             stroke-opacity="0"
             id="use1564" />
        </g>
      </g>
    </g>
  </g>
</svg>
